!!!COM: Gomółka, Mikołaj
!!!CDT: ~1535-after 1591
!!!OTL: Bóg wieczny
!!!OTL@LAT: Deus deorum dominus
!!!AGn: Motet; Psalm
!!!SCn: Gom2050
!!!SCn: Gom2050
!!!voices: 4
!!!CNT: Polish
!!!OCY: Poland
!!!LYR: Jan Kochanowski (1530-1584/08/22)
!!!GTL: Melodiae na Psałterz Polski
!!!EFL: 50/150
!!!PPR: Łazarz Andrysowicz
!!!PPP: Kraków
!!!PDT: 1580
!!!YEC: 2015 Marcin Konik
!!!ENC: Marcin Konik
!!!END: 2015/05/19
!!!EED: Marcin Konik
!!!EEV: 2015/05/19
!!!ONB: Translated from MusicXML and edited on 2015/03/06 by Marcin Konik
!!!CharacterEncoding: utf-8
!!muse2ps: i2I150v85,85,85,150Q16
**kern	**kern	**kern	**kern
*staff4	*staff3	*staff2	*staff1
*Ivox	*Ivox	*Ivox	*Ivox
*I"Bassus	*I"Tenor	*I"Altus	*I"Cantus
*I'B	*I'T	*I'A	*I'C
*clefF3	*clefC3	*clefC2	*clefG2
*k[b-]	*k[b-]	*k[b-]	*k[b-]
*M2/1	*M2/1	*M2/1	*M2/1
*met(C|)	*met(C|)	*met(C|)	*met(C|)
=1-	=1-	=1-	=1-
1G	1B-	1d	2.g
.	.	.	4a
2E-	2G	2g	4b-
.	.	.	4cc
2D	2A	4f	4dd
.	.	4g	4ee
=2	=2	=2	=2
4D	4F	2a	1ff
4E	4G	.	.
4F	4A	2a	.
4G	4B-	.	.
4A	4c	2a	2ee
4B-	4d	.	.
2c	4e	4g	2ee
.	4f	4a	.
=3	=3	=3	=3
2G	4g	2b-	2.dd
.	4f	.	.
2B-	4e	2g	.
.	4d	.	8cc
.	.	.	8b-
1A	1e	2.a	4cc
.	.	.	2dd
.	.	4g	4cc#
=4	=4	=4	=4
2D	2d	2f#	2dd
2G	2d	2g	2dd
2.B-	2d	2f	2.dd
.	2f	2b-	.
4B-	.	.	4dd
=5	=5	=5	=5
2E-	2.g	2.b-	2ee-
2E-	.	.	2ee-
.	4g	4b-	.
4BB-	1f	1b-	1dd
4C	.	.	.
4D	.	.	.
4E	.	.	.
=6	=6	=6	=6
2F	2.f	4a	4cc
.	.	8g	8b-
.	.	8a	8cc
2D	.	4b-	4dd
.	4e-	4a	4cc
2G	2d	4g	4b-
.	.	8f	8a
.	.	8g	8b-
2C	4c	4f	4a
.	4B-	4e	4g
=7	=7	=7	=7
1D	4A	4f#	2.dd
.	4G	2g	.
.	2A	.	.
.	.	4f#	4cc
2G	2G	2g	2b
2F	2c	2a	2cc
=8	=8	=8	=8
2E	2c	2g	2cc
4F	[2f	2a	2cc
4E	.	.	.
4D	4f]	2.b-	1ff
4C	4e	.	.
2BB-	2d	.	.
.	.	4a	.
=9	=9	=9	=9
2C	2e	2g	2ee
[2F	2f	4a	[2cc
.	.	4g	.
4F]	2f	4a	4cc]
4G	.	4b-	4b-
4A	2f	2cc	2a
4B-	.	.	.
=10	=10	=10	=10
2c	2e	2cc	2g
2d	2d	4a	2f
.	.	4b-	.
1c	4e	2cc	4g
.	2f	.	2a
.	.	2c	.
.	4e	.	4g
=11	=11	=11	=11
2F	2f	2c	2a
2D	2A	2f	2a
2AA	2c	2e	2a
2AA	2c#	4a	2ee
.	.	4g	.
=12	=12	=12	=12
1D	2d	4f	2.ff
.	.	4e	.
.	2d	2f	.
.	.	.	4ee
2BB-	2.d	2f	4dd
.	.	.	4cc
2BB-	.	2f	4b-
.	4c	.	4a
=13	=13	=13	=13
2E-	2B-	2e-	2g
2C	2c	2e-	1g
1D	1A	2.d	.
.	.	.	2f#
.	.	4c	.
=14	=14	=14	=14
0G	0G	0B	0g
==	==	==	==
*-	*-	*-	*-
